V6_wwwroot/ptn/core/icons/fa6/svgs/solid/align-left.svg

<svg xmlns="http://www.w3.org/2000/svg" viewBox="0 0 448 512"><!--! Font Awesome Free 6.4.2 by @fontawesome - https://fontawesome.com License - https://fontawesome.com/license/free (Icons: CC BY 4.0, Fonts: SIL OFL 1.1, Code: MIT License) Copyright 2023 Fonticons, Inc. --><path d="M288 64c0 17.7-14.3 32-32 32H32C14.3 96 0 81.7 0 64S14.3 32 32 32H256c17.7 0 32 14.3 32 32zm0 256c0 17.7-14.3 32-32 32H32c-17.7 0-32-14.3-32-32s14.3-32 32-32H256c17.7 0 32 14.3 32 32zM0 192c0-17.7 14.3-32 32-32H416c17.7 0 32 14.3 32 32s-14.3 32-32 32H32c-17.7 0-32-14.3-32-32zM448 448c0 17.7-14.3 32-32 32H32c-17.7 0-32-14.3-32-32s14.3-32 32-32H416c17.7 0 32 14.3 32 32z"/></svg>

<svg xmlns="http://www.w3.org/2000/svg" viewBox="0 0 448 512"><!--! Font Awesome Free 6.1.1 by @fontawesome - https://fontawesome.com License - https://fontawesome.com/license/free (Icons: CC BY 4.0, Fonts: SIL OFL 1.1, Code: MIT License) Copyright 2022 Fonticons, Inc. --><path d="M256 96H32C14.33 96 0 81.67 0 64C0 46.33 14.33 32 32 32H256C273.7 32 288 46.33 288 64C288 81.67 273.7 96 256 96zM256 352H32C14.33 352 0 337.7 0 320C0 302.3 14.33 288 32 288H256C273.7 288 288 302.3 288 320C288 337.7 273.7 352 256 352zM0 192C0 174.3 14.33 160 32 160H416C433.7 160 448 174.3 448 192C448 209.7 433.7 224 416 224H32C14.33 224 0 209.7 0 192zM416 480H32C14.33 480 0 465.7 0 448C0 430.3 14.33 416 32 416H416C433.7 416 448 430.3 448 448C448 465.7 433.7 480 416 480z"/></svg>
